X:1
T:Arie Antiche, Del opera La donna ancora è fedele
T:Se Florindo è fedele
T:Alessandro Scarlatti (1660-1725) Alessandro Parisotti (1853-1913)
T:Se Florindo è fedele.
T:Arietta..
T:High voices Del opera La donna ancora è fedele Domenico Filippo Contini (1669–1687)
T:Creative Commons copyright waiver (CC0 1.0 Universal)
T:Creative Commons copyright waiver (CC0 1.0 Universal)
T:Creative Commons copyright waiver (CC0 1.0 Universal)
T:Creative Commons copyright waiver (CC0 1.0 Universal)
T:Creative Commons copyright waiver (CC0 1.0 Universal)
T:Creative Commons copyright waiver (CC0 1.0 Universal)
C:Alessandro Scarlatti (1660-1725)
Z:Domenico Filippo Contini (1669–1687)
Z:Creative Commons copyright waiver (CC0 1.0 Universal)
%%score ( 1 2 ) { ( 3 5 ) | 4 }
L:1/8
Q:1/8=132
M:3/8
K:Ab
V:1 treble nm="Voice"
V:2 treble 
V:3 treble nm="Piano."
V:5 treble 
V:4 bass 
V:1
"^Allegreto grazioso, moderato assai. (.)" z3 | z3 | z3 | z3 |"^Voice." z3 | z3 | A !>!B2 | %7
w: ||||||Se Flo-|
 c (!>!e/d/) (c/B/) | A E z |!<(! A B c!<)! | d{/d} (c/B/c/d/) | B3 | z3 | A !>!B2 | %14
w: rin- doè _ fe- *|de- le|io m'in- na-|mo- re- * * *|rò,||Se Flo-|
 c (!>!e/d/) (c/B/) | A E z |!<(! A B c!<)! | d (B/c/d) |!<(! d[Q:1/4=78] (B/c/) d!<)! | %19
w: rin- doè _ fe- *|de- le|io m'in- na-|mo- re- * *|rò, s'è _ fe-|
!<(! d (B/c/) d!<)! |!f!!>(! e3/2 d/[Q:1/4=76] (c/B/)!>)! | ((A/B/)"^dolce" E G |[Q:1/4=73] A3) | %23
w: de- le _ Flo-|rin- do m'in- *|na- * mo- re-|rò,|
!<(! A B c!<)! | d!<(! (B/c/d)!<)! | d!<(! (B/c/) d!<)! | d!<(! (B/c/) d!<)! | %27
w: io m'in- na-|mo- re- * *|rò, s'è _ fe-|de- le _ Flo-|
!f!!>(! e3/2 d/ (c/B/)!>)! |!p! ((A/B/) E G |[Q:1/4=50] A3) | %30
w: rin- do m'in- *|na- * mo- re-|rò,|
 z ._c/[Q:1/4=48]"^rall." .B/ .c/ .B/ | _c z z[Q:1/4=42] | z (._c/[Q:1/4=46] .B/ .c/ .B/) | %33
w: m'in- na- mo- re-|ró,|m'in- na- mo- re-|
!<(! (_c!>!d3/2c/4d/4!<)! |!f![Q:1/4=68]"^a tempo" e3/2) d/ (_c/B/) |!p! ((A/B/) .E .G | A3) | %37
w: ró, _ _ _|_ io m'in- *|na- * mo- re-|rò.|
[Q:1/4=70] z3 | z3 | z3 | z2!p! F | B3/2 =c/ B/ A/ | G3/2 G/ A | B (!>!e/=d/) (c/B/) | %44
w: |||Po-|trà ben l'ar- co|ten- de- re|il fa- * re- *|
 A!>(! G2!>)! | F3 | z2 B | .B/ .A/ G !>!c | B3/2 .A/ .G/ .B/ |!<(! (c>=d)!<)!!f! e | %50
w: tra- toar|cier,|ch'io|mi sa- prõ di-|fen- de- re d'un|guar- * do|
 z!p! (B/A/) (G/E/) | E3 | z3 | z!pp! (!>!c F) | z (!>!c F) | z!<(! c3/2 c/!<)! | %56
w: lu- * sin- *|ghier.||Pre- ghi,|pian- ti|e que-|
!>(! (c F) _d!>)! |!>(! c/ B/ =A3/2 B/!>)! | B z z | z/"^con grazia" (.B/ ._A/ .G/ .A/ .B/) | %60
w: re- le, io|non a- scol- te-|rò,|ma se sa- rà fe-|
 (G F) z | z/!<(! e/ _d/ c/ d/[Q:1/4=60] e/!<)! |!<(! c3/2 =d/ e!<)! |[Q:1/4=56] =d/ c/ =B3/2 c/ | %64
w: de- le,|ma se sa- rà fe-|de- le io|m'in- na- mo- re-|
[Q:1/4=50] =d z z |!p! c z z |"^dolce" (=d/ c/ G =B |[Q:1/4=45] c3) | %68
w: ró,|io|m'in- na- mo- re-|ró,|
 z[Q:1/4=43]"^rall." (.c/ .=B/ .c/ .B/) | c z z | z (.c/ .=B/ .c/ .B/) | %71
w: m'in- na- mo- re-|ró,|m'in- na- mo- re-|
[Q:1/4=53]"^a tempo" c3/2!<(! _B/ (A/G/)!<)! |!p! ((F/c/) =B3/2 c/) | !fermata!c3 | %74
w: ró, io m'in- *|na- * mo- re-|rò.|
[Q:1/4=68] .A _B2 | c!>(! (!>!e/d/) (c/B/) | .A!>)! .E z |!<(! A B c!<)! | %78
w: Se Flo-|rin- doè _ fe- *|de- le|io m'in- na-|
!>(! d{/d} (c/B/c/d/)!>)! | B3 |[Q:1/4=74] z3 | .A !>!B2 | c (!>!e/!>(!d/) (c/B/)!>)! | %83
w: mo- re- * * *|rò,||Se Flo-|rin- doè _ fe- *|
[Q:1/4=76] A E z |!<(! A B c!<)! | d!<(! (B/c/d)!<)! |"^cresc." d (B/c/) d | d!<(! (B/c/) d!<)! | %88
w: de- le|io m'in- na-|mo- re- * *|rò, s'è _ fe-|de- le _ Flo-|
!f! e3/2 d/ (c/B/) |!p! ((A/B/) E G | A3) |!<(! A B c!<)! |!<(! d (B/c/d)!<)! | %93
w: rin- do m'in- *|na- * mo- re-|rò,|io m'in- na-|mo- re- * *|
!<(! d (B/c/) d!<)! |!<(! d (B/c/) d!<)! |!f!!>(! e3/2 d/ (c/B/)!>)! |!p! ((A/B/) E G | %97
w: rò, s'è _ fe-|de- le _ Flo-|rin- do m'in- *|na- * mo- re-|
[Q:1/4=48] A3) | z[Q:1/4=45]"^rall." (._c/ .B/ .c/ .B/) | _c z z | z (._c/ .B/ .c/ .B/) | %101
w: rò,|m'in- na- mo- re-|ró,|m'in- na- mo- re-|
[Q:1/4=46]!<(! (_c!>!d3/2c/4d/4!<)! |!f!!>(! e3/2) d/ (_c/B/)!>)! | %103
w: ró, _ _ _|_ io m'in- *|
!p![Q:1/4=40]"^rit. assai" (A/B/) !>!E !>!=G | !fermata!A3 |] %105
w: na- * mo- re-|rò.|
V:2
 x3 | x3 | x3 | x3 | x3 | x3 | x3 | x3 | x3 | x3 | x3 | x3 | x3 | x3 | x3 | x3 | x3 | x3 | x3 | %19
 x3 | x3 | A/ B/ E x | x3 | x3 | x3 | x3 | x3 | x3 | A/ B/ E x | x3 | x3 | x3 | x3 | x3 | %34
 x2 _c/ B/ | A/ B/ E x | x3 | x3 | x3 | x3 | x3 | x3 | x3 | x3 | x3 | x3 | x3 | x3 | x3 | x3 | x3 | %51
 x3 | x3 | x3 | x3 | x3 | x3 | x3 | x3 | x3 | x3 | x3 | x3 | x3 | x3 | x3 | x3 | x3 | x3 | x3 | %70
 x3 | x2 A/ G/ | F/ c/ =B3/2 x/ | x3 | x3 | x3 | x3 | x3 | x3 | x3 | x3 | x3 | x3 | x3 | x3 | x3 | %86
 x3 | x3 | x3 | A/ B/ E x | x3 | x3 | x3 | x3 | x3 | x3 | A/ B/ E x | x3 | x3 | x3 | x3 | x3 | %102
 x2 _c/ B/ | A/ B/ E x | x3 |] %105
V:3
!p! .[CEA]!<(! !>![EGB]2 | .[EAc]{/E} (!>!e/d/c/.B/) | .A!<)! !>![EG]2 |!f!!<(! (ABc)!<)! | %4
 !>!d!f!!>(!{/d}([Ac]/B/c/!p!d/)!>)! | [EGB]3 | .[CA]!<(! !>![EGB]2 | [EAc]{/E} (!>!e/d/c/B/) | %8
 A ((!>!E/D/C/!<)!B,/)) | .A,.E, z |[K:bass]!>(! .[E,G,D] !>![E,A,C]2!>)! | [E,G,B,]3 | %12
[K:treble] .[CA] !>![EGB]2 | .[EAc] (!>!e/d/c/B/) | .A.E z | .[CA] !>![B,EG]2 | %16
!<(! ([CEA][EB][Ec])!<)! | [EGd] z !>![Bd]- |"_cresc." [Bd] z [B,D]- |[B,D] z ((!>![G,B,] | %20
!f!!>(! ([A,E]))[DG][CA])!>)! |!p! ([DF][CE][DG]) | [CA]3 | ([CEA][EB][Ec] |!p! [EGd]) z !>![Bd]- | %25
 [Bd] z [B,D]- | [B,D] z ((!>![G,B,] |!f! ([A,E]))[DG][CA]) |!p! (([DF][CE][DG])) | %29
 [CA]!p! (._c/.B/.c/.B/ | _c) z z | z ._c/.B/.c/.B/ | _c z z | z3 |!f!!>(! (!>!B/A/=G/_F/E)!>)! | %35
!p! (([D_F][_CE][DG])) | [A,_C]3 |!p! .[=CEA] !>![EGB]2 | [EAc] (!>!e/d/c/B/) | .A (!>!a/g/f/e/) | %40
 .[B=d] !>![B,=DF]2 | (B>cB/A/ | [EG]) ([G,E][B,=D]) | [B,E](!>![CE][B,E]) | [B,=DA]!>(! [B,EG]2 | %45
 .[B,=DF]!>)! (!>!f/e/=d/c/ | B)(!>!=d/c/B/A/) | (GE!>![Ec]) | B>AG |"_cresc." (C=D) [G,E] | %50
!p! ([A,C][G,B,][A,=D]) | [G,E] (!>!b/a/g/f/) | e(!>!g/f/e/_d/ | c)A z |!pp! (CF,) z | (CF,) z | %56
 z F[F_d] |!>(! c/B/ [F=A]2!>)! | .[DB]/!p! (B/_A/=G/A/B/) | (GA).F | (G/B/A/G/A/B/) | %61
 G/ e/_d/c/d/e/ |!<(! [Ac]([Cc]/[=D=d]/[Ee])!<)! | (=d/c/) !>![F=B]!>![^Fc] | [G=B] z z | %65
 z (!>!c/_B/A/G/) | F ([CE][=B,=DF]) | [CE]!p! (.c/.=B/.c/.B/) | c z z | z (.c/.=B/.c/.B/) | %70
 c z z |!<(! (!>!c/_B/A/G/F/E/)!<)! | F [=B,=D][B,DG] | [CE] z !fermata!z |!p! .[CA] !>![EG_B]2 | %75
 .[EAc]{/E} (!>!e/d/c/B/) | A (!>!E/D/C/B,/) |[K:bass] .A,.E, z | .[E,G,D] !>![E,A,C]2 | %79
 [E,G,B,]3 |[K:treble]!p! .[CA] !>![EGB]2 | [EAc] (!>!e/d/c/B/) | .A.E z | .[CA] !>![B,EG]2 | %84
 ([CEA][EB][Ec]) | [EGd] z !>![Bd]- |"_cresc." [Bd] z !>![B,D]- |[B,D] z ((!>![G,B,] | %88
!f! [A,E]))([DG][CA]) |!p! ([DF][CE][DG]) | [CA]3 | ([CEA][EB][Ec]) |!<(! [EGd] z!<)! !>![Bd]- | %93
 [Bd] z !>![B,D]- | [B,D] z ((!>![G,B,] |!f!!>(! [A,E]))([DG][CA])!>)! | ([DF][CE][DG] | %97
 [CA])!p! (._c/.B/.c/.B/) | _c z z | z (._c/.B/.c/.B/) | _c z z | z3 |!f! (!>!B/A/=G/_F/E) | %103
!p! .[D_F].[_CE].[DG] | !fermata!A,3 |] %105
V:4
 .A,, (!>!E,/D,/C,/B,,/) | .A,,.E,, z | .A,, (!>!E,/D,/C,/B,,/) | (A,,G,,A,,) | B,, A,,2 | E,,3 | %6
 .A,, (!>!E,/D,/C,/B,,/) | .A,,.E,, z | A,, z z | z (G,,/F,,/E,,) | .B,, !>!A,,2 | E,,2 z | %12
 .A,, (!>!E,/D,/C,/B,,/) | .A,,.E,, z | .A,, z z | .A,, (!>!E,/D,/C,/B,,/) | (A,,G,,A,,) | %17
 (B,,B,)(!>!A, | G,) z (!>!F, |E,) z (!>!D, | (C,)B,,A,,) | (D,E,).E,, | A,,3 | (A,,G,,A,,) | %24
 (B,,B,)(!>!A, | G,) z (!>!F, | E,) z (!>!D, | (C,)B,,A,,) | ((D,E,)).E,, | A,, z z | %30
"^col canto" z3 |"^imitando la voce" z3 | z3 | z3 |"^a tempo" (G,,E,,A,,) | ((D,E,)).E,, | A,,3 | %37
 .A,, (!>!E,/D,/=C,/B,,/) | .A,,.E,, z | .A,,.F,, z | (B,,B,).A, | (G,E,=D,) | E,(E,,F,,) | %43
 G,,(!>!A,,G,,) | .F,, E,,2 | B,,,(B,,C,) | (=D,B,,D,) | E,E,,!>!A,, | (G,,F,,E,,) | (A,,B,,C,) | %50
 (A,,B,,B,,,) | E,,(E,F,) | G,(E,G,) | (A,F,) z | (!>!C,F,,) z | (!>!C,F,,) z | z (_D,/C,/B,,) | %57
 (E,F,F,,) | B,,(F,=D,) | (E,F,=D,) | (E,F,=D,) | (E,B,G,) | (A,/G,/F,/E,/=D,/C,/) | %63
 !>!F,,!>!G,,!>!A,, | G,, z z | E,, z z | (F,,G,,).G, | C, z z |"^col canto" z3 | %69
"^imitando il canto" z3 | z3 |"^a tempo" z3 | (F,G,).G,, | C, z !fermata!z | %74
 .A,, (!>!E,/_D,/C,/B,,/) | .A,,.E,, z | A,, z z | z (G,,/F,,/E,,) | .B,, !>!A,,2 | E,,3 | %80
 .A,, (!>!E,/D,/C,/B,,/) | .A,,.E,, z | .A,, z2 | .A,, (!>!E,/D,/C,/B,,/) | (A,,G,,A,,) | %85
 (B,,B,)(!>!A, | G,) z (!>!F, |E,) z (!>!D, | C,)(B,,A,,) | (D,E,)E,, | A,,3 | (A,,G,,A,,) | %92
 (B,,B,)(!>!A, | G,) z (!>!F, | E,) z (!>!D, | C,)(B,,A,,) | (D,E,E,, | A,,) z z |"^col canto" z3 | %99
"^imitando il canto" z3 | z3 | z3 | .=G,,.E,,.A,, | .D,.E,.E,, | !fermata!A,,3 |] %105
V:5
 x3 | x3 | x3 | C E2 | [EG] E2 | x3 | x3 | x3 | x3 | x3 |[K:bass] x3 | x3 |[K:treble] x3 | x3 | %14
 x3 | x3 | x3 | x3 | x3 | x3 | x3 | x3 | x3 | x3 | x3 | x3 | x3 | x3 | x3 | x3 | x3 | x3 | x3 | %33
 x3 | x3 | x3 | x3 | x3 | x [EG]2 | A !>![Ac]2 | x3 | EGF | x3 | x3 | x3 | x3 | x3 | x3 | E5/2 x/ | %49
 B,2 x | x3 | x3 | x3 | x3 | x3 | x3 | x3 | [E_G] x2 | x3 | B,3 | B,3- | B,/ z/ GB | x3 | [FA] x2 | %64
 x3 | x C2 | (=D/C/) x2 | x3 | x3 | x3 | x3 | x3 | (=D/C/) x2 | x3 | x3 | x3 | x3 |[K:bass] x3 | %78
 x3 | x3 |[K:treble] x3 | x3 | x3 | x3 | x3 | x3 | x3 | x3 | x3 | x3 | x3 | x3 | x3 | x3 | x3 | %95
 x3 | x3 | x3 | x3 | x3 | x3 | x3 | x3 | x3 | x3 |] %105

